X: 10839
T: Dreary Plains Of Toil, The
R: strathspey
M: 4/4
K: Eminor
ED"^em"|:B,/E3/2E3/2F/ G3/2E/G/B3/2|"D"A3/2G/F3/2E/ D3/2E/F/D3/2|"^em"B,/E3/2E3/2F/ G3/2E/G/B3/2|
e3/2d/B/d3/2"G"d/e3/2gf|"^em"e3/2f/e3/2d/ B3/2c/d/B3/2|"D"A3/2G/F3/2E/ D3/2E/F/D3/2|
"^em"B,/E3/2E3/2F/ G3/2E/G/B3/2|1 "D"A3/2F/D/F3/2"^em"E2ED:|2 "D"A3/2F/D/F3/2"^em"E2F/A3/2||
|:B/E3/2E3/2D/ B,/E3/2E3/2D/|B,/E3/2D/F3/2 G3/2E/G/B3/2|"D"A3/2F/E3/2D/ B,/D3/2D3/2E/|
F3/2D/F3/2G/ A3/2F/G/A3/2|"^em"B/E3/2E3/2D/ B,/E3/2E3/2D/|B,/E3/2D/F3/2 G3/2E/G/A3/2|
B/e3/2d/e/f e3/2d/BG|1 "D"A3/2F/D/F3/2"^em"E2F/A3/2:|2 "D"A3/2F/D/F3/2"^em"E2||

